brandFactory_export/3.Masa/Reportar_3Masa.svg

<?xml version="1.0" encoding="UTF-8"?>
<svg width="24px" height="24px" viewBox="0 0 24 24" version="1.1" xmlns="http://www.w3.org/2000/svg" xmlns:xlink="http://www.w3.org/1999/xlink">
    <title>3.Masa/Reportar_3Masa</title>
    <g id="Symbols" stroke="none" stroke-width="1" fill="none" fill-rule="evenodd">
        <g id="3.Masa/Reportar_3Masa" fill="#5CB615" fill-rule="nonzero">
            <path d="M21.5226891,9.5697479 C21.2235294,9.86554622 17.9932773,12.7462185 12.6655462,17.4655462 L12.4369748,17.6504202 L8.33613445,19.1563025 C8.27226891,19.1731092 7.94621849,19.2907563 7.76134454,19.1058824 C7.57983193,18.9210084 7.70420168,18.6184874 7.72436975,18.5579832 L9.21680672,14.5411765 C9.2605042,14.4235294 9.32773109,14.3260504 9.41848739,14.2420168 C12.3966387,11.610084 17.9058824,6.72941176 18.2957983,6.3394958 C18.7731092,5.86218487 19.3378151,5.65714286 19.8890756,5.65714286 C20.507563,5.65714286 21.1058824,5.91596639 21.5294118,6.3394958 C21.9596639,6.7697479 22.2151261,7.38823529 22.2117975,7.98991597 C22.2117975,8.58151261 21.9731092,9.12605042 21.5226891,9.5697479 M23.6571632,7.99663866 C23.6605042,7.01848739 23.2470588,6.01680672 22.5512605,5.31764706 C22.010084,4.77647059 21.297479,4.42352941 20.5445378,4.28235294 C20.2621849,1.63361345 18.4537815,0 15.6907563,0 L4.94117647,0 C1.91260504,0 0.0302521008,1.91932773 0.0302521008,5.01176471 L0.0302521008,18.6722689 C0.0302521008,20.1478992 0.443697479,21.3411765 1.26722689,22.2151261 C2.14117647,23.1495798 3.37478992,23.6235294 4.94117647,23.6235294 L15.6907563,23.6235294 C17.2537815,23.6235294 18.4941176,23.1495798 19.3680672,22.2151261 C20.1882353,21.3411765 20.6016807,20.1478992 20.6016807,18.6722689 L20.6016807,12.3462185 C21.6537815,11.4084034 22.3831933,10.7495798 22.5344538,10.5983193 C23.2672269,9.8789916 23.6537815,8.97815126 23.6571632,7.99663866" id="Reportar_3Masa"></path>
        </g>
    </g>
</svg>

<svg width="24" height="24" viewBox="0 0 24 24" xmlns="http://www.w3.org/2000/svg"><path d="M21.523 9.57c-.3.296-3.53 3.176-8.857 7.896l-.229.184-4.1 1.506c-.065.017-.39.135-.576-.05-.181-.185-.057-.488-.037-.548l1.493-4.017a.761.761 0 01.201-.299c2.979-2.632 8.488-7.513 8.878-7.903.477-.477 1.042-.682 1.593-.682.619 0 1.217.259 1.64.682.43.43.686 1.05.683 1.65 0 .593-.239 1.137-.69 1.58m2.135-1.572a3.861 3.861 0 00-1.106-2.68 3.84 3.84 0 00-2.006-1.035C20.262 1.634 18.454 0 15.69 0H4.94C1.913 0 .031 1.92.031 5.012v13.66c0 1.476.413 2.67 1.236 3.543.874.935 2.108 1.409 3.674 1.409h10.75c1.563 0 2.803-.474 3.677-1.409.82-.874 1.234-2.067 1.234-3.543v-6.326c1.052-.938 1.781-1.596 1.932-1.748.733-.719 1.12-1.62 1.123-2.601" fill="#5CB615" fill-rule="nonzero"/></svg>
